src/img/categories/home.svg

<svg width="32" height="32" viewBox="0 0 32 32" fill="none" xmlns="http://www.w3.org/2000/svg">
<path d="M28.1167 8.47059C27.9262 9.21056 27.5164 9.86249 26.9608 10.3529H30.1176C31.1572 10.3529 32 11.1957 32 12.2353C32 13.2749 31.1572 14.1176 30.1176 14.1176H1.88235C0.842758 14.1176 0 13.2749 0 12.2353C0 11.1957 0.842758 10.3529 1.88235 10.3529H21.0392C20.2577 9.66311 19.7647 8.65383 19.7647 7.52941V1.88235C19.7647 1.36256 20.1861 0.941176 20.7059 0.941176H27.2941C27.8139 0.941176 28.2353 1.36256 28.2353 1.88235V2.82353H29.1765C30.7359 2.82353 32 4.08767 32 5.64706C32 7.20645 30.7359 8.47059 29.1765 8.47059H28.1167ZM28.2353 6.58824H29.1765C29.6963 6.58824 30.1176 6.16686 30.1176 5.64706C30.1176 5.12726 29.6963 4.70588 29.1765 4.70588H28.2353V6.58824ZM8.47059 25.4118V17.8824C8.47059 17.3626 8.89197 16.9412 9.41177 16.9412C9.93156 16.9412 10.3529 17.3626 10.3529 17.8824V27.7647C10.3529 30.1038 8.45674 32 6.11765 32C3.77856 32 1.88235 30.1038 1.88235 27.7647V26.3529C1.88235 25.8331 2.30373 25.4118 2.82353 25.4118H8.47059ZM16.0164 22.7642C16.0056 22.7072 16 22.6484 16 22.5882V17.8824C16 17.3626 16.4214 16.9412 16.9412 16.9412C17.461 16.9412 17.8824 17.3626 17.8824 17.8824V22.5882C17.8824 22.6484 17.8767 22.7072 17.8659 22.7642C19.296 23.3298 20.2353 25.1873 20.2353 27.2941C20.2353 29.8273 18.8774 32 16.9412 32C15.005 32 13.6471 29.8273 13.6471 27.2941C13.6471 25.1873 14.5864 23.3298 16.0164 22.7642ZM25.4282 22.7642C25.4174 22.7072 25.4118 22.6484 25.4118 22.5882V17.8824C25.4118 17.3626 25.8331 16.9412 26.3529 16.9412C26.8727 16.9412 27.2941 17.3626 27.2941 17.8824V22.5882C27.2941 22.6484 27.2885 22.7072 27.2777 22.7642C28.7078 23.3298 29.6471 25.1873 29.6471 27.2941C29.6471 29.8273 28.2891 32 26.3529 32C24.4167 32 23.0588 29.8273 23.0588 27.2941C23.0588 25.1873 23.9981 23.3298 25.4282 22.7642ZM3.76471 5.17647H16C16.5198 5.17647 16.9412 5.59785 16.9412 6.11765C16.9412 7.67704 15.677 8.94118 14.1176 8.94118H5.64706C4.08767 8.94118 2.82353 7.67704 2.82353 6.11765C2.82353 5.59785 3.24491 5.17647 3.76471 5.17647ZM3.76471 0H16C16.5198 0 16.9412 0.421379 16.9412 0.941176C16.9412 2.50057 15.677 3.76471 14.1176 3.76471H5.64706C4.08767 3.76471 2.82353 2.50057 2.82353 0.941176C2.82353 0.421379 3.24491 0 3.76471 0Z" fill="#232F3E"/>
</svg>

<svg width="32" height="32" fill="none" xmlns="http://www.w3.org/2000/svg"><path d="M28.117 8.47c-.19.74-.6 1.392-1.156 1.883h3.157a1.882 1.882 0 010 3.765H1.882a1.882 1.882 0 110-3.765H21.04a3.756 3.756 0 01-1.274-2.824V1.882c0-.52.421-.94.94-.94h6.59c.519 0 .94.42.94.94v.942h.942a2.824 2.824 0 010 5.647h-1.06zm.118-1.882h.942a.941.941 0 000-1.882h-.942v1.882zM8.471 25.412v-7.53a.941.941 0 111.882 0v9.883a4.235 4.235 0 11-8.47 0v-1.412c0-.52.42-.941.94-.941h5.648zm7.545-2.648a.944.944 0 01-.016-.176v-4.706a.941.941 0 011.882 0v4.706c0 .06-.005.12-.016.176 1.43.566 2.37 2.423 2.37 4.53 0 2.533-1.359 4.706-3.295 4.706s-3.294-2.173-3.294-4.706c0-2.107.94-3.964 2.37-4.53zm9.412 0a.944.944 0 01-.016-.176v-4.706a.941.941 0 111.882 0v4.706c0 .06-.006.12-.016.176 1.43.566 2.37 2.423 2.37 4.53 0 2.533-1.359 4.706-3.295 4.706s-3.294-2.173-3.294-4.706c0-2.107.94-3.964 2.37-4.53zM3.765 5.176H16c.52 0 .941.422.941.942a2.824 2.824 0 01-2.823 2.823h-8.47a2.824 2.824 0 01-2.824-2.823c0-.52.42-.942.94-.942zm0-5.176H16a.94.94 0 01.941.941 2.824 2.824 0 01-2.823 2.824h-8.47A2.824 2.824 0 012.823.94c0-.52.42-.941.94-.941z" fill="#232F3E"/></svg>
